X: 1
T: Kesh Jig
C: (Arr. YT Fiddlehed)
R: jig
M: 6/8
L: 1/8
K: Gmaj
|: "G"G2 G GAB | "D"A2A ABD' | "G"edd "C"gdd | "G"edB "D"dBA |
| "G"G2 G GAB | "D"A2A ABD' | "G"edd "C"gdB | "D"AGF "G"G3 :| 
|: "G"B2 d dBd | "C"ege dBG | "G"B2 d dBG | "D"ABA AGA |
| "G"B2 d dBd | "C"ege dBd | "G"gfg "D"aga | "C"bgf "G"g3 :| 
